img/SVG/logo_RITZ.svg

<svg xmlns="http://www.w3.org/2000/svg" viewBox="0 0 122 92.15"><defs><style>.cls-1{fill:#3e2723}</style></defs><title>Asset 2</title><g id="Layer_2" data-name="Layer 2"><g id="Слой_1" data-name="Слой 1"><path class="cls-1" d="M8 78h9.95v14.15h-4.1V81.49H12.1v10.66H8zm14 14.15V78h9.95v7.58l-5.84 3.24v3.34zm4.1-7.4l1.74-.94v-2.22h-1.78zm9.33 7.4V80.59L38.29 78h7.08v11.55l-2.87 2.6zm4.1-3.88h1.74v-6.68h-1.74zm9.87 3.88V78h3.67l2.57 4.44L58.21 78h3.67v14.15h-4.1v-9.1l-2.13 3.24L53.51 83v9.12zm16.51 0V78h9.95v4.26l-4.1 1.54v-2.3h-1.69v6.88h1.69V86h4.1v6.2zM79.71 78h4.1v7.18l2.36-3.58V78h4.1v14.15h-4.1v-4.7l-3 4.7h-3.46zm18.59 5.35v8.8h-4.1v-9.46L97.77 78h6.37v14.15H100V80.91zm9.76 8.8v-9.46l3.58-4.7H118v14.16h-4.1v-5.48h-1.74v5.48zm5.84-7.78v-3.46l-1.74 2.44v1zM55 68H45V48.89L32.14 68H22V34h10v19.4L45 34h10zm29-26h-8v26H66V42h-7v-8h25zm38 32h-9v-6H88V34h10v25h10V34h10v26h4zM108 6.98h10v22h-10z"/><path class="cls-1" d="M8 20v48h10V30h100V20zM0 0v10h118V0z"/></g></g></svg>

<svg xmlns="http://www.w3.org/2000/svg" viewBox="0 0 122 92.15"><defs><style>.cls-1{fill:#3e2723;}</style></defs><title>Asset 2</title><g id="Layer_2" data-name="Layer 2"><g id="Слой_1" data-name="Слой 1"><path class="cls-1" d="M8,78h9.95V92.15h-4.1V81.49H12.1V92.15H8Z"/><path class="cls-1" d="M22,92.15V78h9.95v7.58l-5.84,3.24v3.34Zm4.1-7.4,1.74-.94V81.59H26.06Z"/><path class="cls-1" d="M35.43,92.15V80.59L38.29,78h7.08V89.55l-2.87,2.6Zm4.1-3.88h1.74V81.59H39.53Z"/><path class="cls-1" d="M49.4,92.15V78h3.67l2.57,4.44L58.21,78h3.67V92.15h-4.1v-9.1l-2.13,3.24L53.51,83v9.12Z"/><path class="cls-1" d="M65.91,92.15V78h9.95v4.26l-4.1,1.54v-2.3H70.07v6.88h1.69V86h4.1v6.2Z"/><path class="cls-1" d="M79.71,78h4.1v7.18l2.36-3.58V78h4.1V92.15h-4.1v-4.7l-3,4.7H79.71Z"/><path class="cls-1" d="M98.3,83.35v8.8h-4.1V82.69L97.77,78h6.37V92.15H100V80.91Z"/><path class="cls-1" d="M108.06,92.15V82.69l3.58-4.7H118V92.15h-4.1V86.67h-1.74v5.48Zm5.84-7.78V80.91l-1.74,2.44v1Z"/><path class="cls-1" d="M55,68H45V48.89L32.14,68H22V34H32v19.4L45,34H55Z"/><path class="cls-1" d="M84,42H76l0,26H66l0-26H59V34H84Z"/><path class="cls-1" d="M122,74h-9V68H88V34H98V59h10V34h10V60h4Z"/><rect class="cls-1" x="108" y="6.98" width="10" height="22"/><path class="cls-1" d="M8,20V68H18V30H118V20Z"/><path class="cls-1" d="M0,0V10H118V0Z"/></g></g></svg>
